dist/img/icons/trash.svg

<svg width="14" height="15" viewBox="0 0 14 15" fill="none" xmlns="http://www.w3.org/2000/svg">
<path d="M12.6875 1.625H9.40625L9.13281 1.13281C9.02344 0.914062 8.80469 0.75 8.55859 0.75H5.41406C5.16797 0.75 4.94922 0.914062 4.83984 1.13281L4.59375 1.625H1.3125C1.06641 1.625 0.875 1.84375 0.875 2.0625V2.9375C0.875 3.18359 1.06641 3.375 1.3125 3.375H12.6875C12.9062 3.375 13.125 3.18359 13.125 2.9375V2.0625C13.125 1.84375 12.9062 1.625 12.6875 1.625ZM2.32422 13.5195C2.35156 14.2305 2.92578 14.75 3.63672 14.75H10.3359C11.0469 14.75 11.6211 14.2305 11.6484 13.5195L12.25 4.25H1.75L2.32422 13.5195Z" fill="#909090"/>
</svg>

<svg xmlns="http://www.w3.org/2000/svg" width="14" height="15" fill="none">
	<path fill="#909090"
		d="M12.688 1.625H9.405l-.273-.492C9.023.914 8.805.75 8.559.75H5.414c-.246 0-.465.164-.574.383l-.246.492H1.312a.45.45 0 0 0-.437.438v.874c0 .247.191.438.438.438h11.374a.45.45 0 0 0 .438-.438v-.874a.47.47 0 0 0-.438-.438ZM2.323 13.52c.028.71.602 1.23 1.313 1.23h6.699c.71 0 1.285-.52 1.312-1.23l.602-9.27H1.75l.574 9.27Z" />
</svg>
